src/assets/icon-content-creation.svg

<svg width="90" height="90" viewBox="0 0 90 90" fill="none" xmlns="http://www.w3.org/2000/svg">
<circle cx="45" cy="45" r="45" fill="#54F06D"/>
<path d="M57.0625 26.6875L54.9362 31.3281L50.3125 33.4375L54.9362 35.5638L57.0625 40.1875L59.1719 35.5638L63.8125 33.4375L59.1719 31.3281M40.1875 31.75L35.9688 41.0312L26.6875 45.25L35.9688 49.4688L40.1875 58.75L44.4062 49.4688L53.6875 45.25L44.4062 41.0312M57.0625 50.3125L54.9362 54.9362L50.3125 57.0625L54.9362 59.1719L57.0625 63.8125L59.1719 59.1719L63.8125 57.0625L59.1719 54.9362" fill="#111827"/>
</svg>

<svg xmlns="http://www.w3.org/2000/svg" width="90" height="90" fill="none"><circle cx="45" cy="45" r="45" fill="#54F06D"/><path fill="#111827" d="m57.063 26.688-2.127 4.64-4.623 2.11 4.623 2.126 2.127 4.623 2.109-4.623 4.64-2.127-4.64-2.109m-18.984.422-4.22 9.281-9.28 4.219 9.28 4.219 4.22 9.281 4.218-9.281 9.282-4.219-9.282-4.219m12.657 9.282-2.127 4.623-4.623 2.127 4.623 2.109 2.127 4.64 2.109-4.64 4.64-2.11-4.64-2.126"/></svg>
